X:10
%
%%barnumbers 0
%%barnumberfirst 90
%%topspace -0.5cm
%
L:1/4
M:C|
K:F
%
V:S clef=treble bracket=4
V:A clef=treble8
V:T clef=treble8
V:B clef=bass
%
[V:S] F4 | G2 F2 | B3 A/G/ | A/B/ c2 =B | c4 |
w: Sus-ce-pit I -* *-* sra-el,
[V:A] z4 | z4 | z2 c2- | c2 d2 | c4 |
w: Sus - ce-pit
[V:T] z2 B2 | Bcd>c | BG F2 | z4 | z FFG |
w: Sus-ce-pit I- *- sra-el, sus-ce-pit
[V:B] z4 | z4 | z4 | f2 fg | a>gfe |
w: Sus-ce-pit I -* sra-
%
%%vskip 0.5cm
%
[V:S] z2 z B | Bcd>c | BA G2 | z2 z B |
w: sus-ce-pit I- * - sra-el pu-
[V:A] f3f | f4- | f2 z2 | z f2 f |
w: I-sra-el* pu-e-
[V:T] A3/2 G/F/D/ d- | dcBF- | FFCc | ABcd |
w: I- *** -* sra-el, I - sra-el pu-e-rum su - 
[V:B] d2 z B | BAB>c | d/e/ f2 e | fBAB |
w: el, sus-ce-pit I- **-* sra-el pu-e-rum
%
%%newpage
%
[V:S] ABc2 | d2 B2- | BBBc- | c/B/ B2 A | B2 z2 |
w: e-rum su-um, pu- - e-rum su -*-- um,
[V:A] f4- | f2 g2- | g4 | f4- | f4 |
w: rum* su - um,*
[V:T] cB2 A | B2 _E_e- | eB _e2 | dc/B/ c2 | Bd2 c- |
w: *-* - um, pu - e-rum su *-* um, re-cor-
[V:B] f4 | Bb2 _e  | _e4 | f4 | Bb2 a |
w: su-um, pu-e-rum su-um, re-cor-
%
[V:S] d3c | B3/2 A/F/G/ A | D2 z F- | FE D2 | C2 z A |
w: re-cor-da *-** tus, re - cor-da-tus mi-
[V:A] z2 f2- | ff f2 | f4 | z4 | z2 f2 |
w: re- - cor-da-tus mi-
[V:T] cB2 A | Bd2 c- | cB2 A | B/A/ A2 G | A4 |
w: - da - tus, re-cor - da- * **-* tus
[V:B] g2f2 | z B2 A | B3/2 A/B/c/ d- | dc B2 | Ffff |
w: da-tus, re-cor-da **-* *-* tus mi-se-ri-
%
[V:S] AAA2- | AG G2 | A>F G2 | FG2 ^F | G2 z d |
w: se-ri-cor- - di-ae su *- *-* ae, mi-
[V:A] fff2- | fe e2 | cd2 c | d4- | d4 |
w: se-ri-cor- - di-ae su -* ae,*
[V:T] z ccc | c3 c | A2 G>A | B2 A2 | GBBB |
w: mi-se-ri-cor-di-ae su - *- ae, mi-se-ri-
[V:B] f3 F | cc>de | fd _e2 | B>c d2 | Gggg |
w: cor-di-ae su -* -** -** ae, mi-se-ri-
%
[V:S] ddd2 | cdA>B | cd2 c/B/ | AG2 ^F |
w: se-ri-cor-di-ae su - *-** *-*
[V:A] z4 | z fff | f3 e | e2 c2 |
w: mi-se-ri-cor-di-ae su-
[V:T] B3 A | A2 F2- | FD F/G/A/B/ | c>B A2 |
w: cor-di-ae su- **-*** *-*
[V:B] g3 f | fd3/2 e/f/g/ | ab a2 | z4 |
w: cor-di-ae su -** -* ae,
%
%%vskip 0.5cm
%
[V:S] G2 z B | BB B2- | BA A2 | "\#"FG2 ^F | G4 |]
w: ae, mi-se-ri-cor- -di-ae su -* ae.
[V:A] d4- | d4- | d4- | d4- | d4 |]
w: ae. ****
[V:T] GBBB | B/A/G/F/ G2- | G^FFA- | AB A2 | G4 |]
w: ae, mi-se-ri- cor **-* - di-ae su- *-* ae.
[V:B] z ggg | g2 G2 | d4 | d4 | G4 |]
w: mi-se-ri-cor-di-ae su-ae.

%---------------------------------------------------------------------------
